packages/core/src/svgs/tokens/mono/CSIX.svg

<svg width="24" height="24" viewBox="0 0 24 24" fill="none" xmlns="http://www.w3.org/2000/svg">
<path fill-rule="evenodd" clip-rule="evenodd" d="M17.4304 14.2776C17.9147 14.1289 18.3489 13.8481 18.6816 13.4658C19.0142 13.0834 19.2329 12.6153 19.3132 12.1148C19.4304 11.4944 19.3199 10.8524 19.0019 10.3067C18.5425 9.55097 17.8164 9.15814 17.8164 9.15814C18.4084 6.62715 14.7579 5.31568 12.7555 4.5963L12.7479 4.59355C12.4292 4.48239 12.155 4.38606 11.9475 4.29714C10.8659 3.77909 9.93861 2.98717 9.25763 2C8.78337 3.70432 10.3321 5.51981 10.3321 5.51981C9.02791 4.38606 5.53034 3.93404 4.84118 3.85254C4.70868 4.33288 4.64139 4.82887 4.64111 5.32714V16.4424C4.64111 17.9164 5.22665 19.3299 6.26889 20.3721C7.31115 21.4144 8.72474 22 10.1987 22H16.2671C15.645 21.9258 15.0748 21.8295 14.5564 21.7185C11.7925 21.1405 10.1623 19.9845 8.82845 18.2506C7.87254 17.0131 7.55389 15.5533 7.50202 15.2123C6.78325 10.6849 10.8588 9.66959 10.8588 9.66959C9.69544 10.8996 10.14 12.7597 10.14 12.7597C10.4349 12.0902 10.9095 11.5155 11.5112 11.0995C12.113 10.6837 12.8182 10.4425 13.5488 10.4032C14.189 10.3811 14.8241 10.5267 15.3909 10.8256C15.9575 11.1246 16.4362 11.5665 16.7795 12.1075C17.4252 13.1349 17.4304 14.2562 17.4304 14.2776ZM15.8973 9.58054L16.4013 8.94339L14.393 7.52057C15.3786 8.48382 15.8973 9.58054 15.8973 9.58054Z" fill="white"/>
</svg>

<svg xmlns="http://www.w3.org/2000/svg" width="24" height="24" fill="none" viewBox="0 0 24 24">
    <path fill="#fff" fill-rule="evenodd" d="M17.43 14.278a2.72 2.72 0 0 0 1.883-2.163 2.62 2.62 0 0 0-.311-1.808c-.46-.756-1.186-1.149-1.186-1.149.592-2.53-3.058-3.842-5.06-4.562l-.008-.002a14 14 0 0 1-.8-.297A6.9 6.9 0 0 1 9.258 2c-.475 1.704 1.074 3.52 1.074 3.52-1.304-1.134-4.802-1.586-5.49-1.667-.133.48-.2.976-.2 1.474v11.115A5.557 5.557 0 0 0 10.198 22h6.068a19 19 0 0 1-1.71-.282c-2.764-.578-4.395-1.733-5.729-3.467-.955-1.238-1.274-2.698-1.326-3.039-.719-4.527 3.357-5.542 3.357-5.542-1.164 1.23-.719 3.09-.719 3.09a3.96 3.96 0 0 1 3.409-2.357 3.68 3.68 0 0 1 3.23 1.704 4.5 4.5 0 0 1 .651 2.17M15.897 9.58l.504-.638-2.008-1.422a8 8 0 0 1 1.504 2.06" clip-rule="evenodd"/>
</svg>
